X: 1
T: Ye Nations All   [Dm]
T: the Babe of Bethlehem
C: William Walker (1809-1875)
M: 6/8
L: 1/8
K: Dm
A, | "Dm"D2D "C"(ED)C | "Dm"D2F "Gm"G2A | "Dm"Ac=B "(Am)"(AG)E |1 "Dm"(D2C) "Am"A,2 :|2 "Dm"D3 D2 ||
A  | "F"A2(A/=B/) "C"c2G | "F"A2(A/=B/) "C"c2c | "Dm"d2A "(Am)"(AG)E | "Dm"(D2C) "Am"A,2 ||
A, | "Dm"D2D "C"(ED)C | "Dm"D2F "Gm"G2A | "Dm"Ac=B "(Am)"(AG)E | "Dm"D3 D2z |] z2 z2 |]
